X:1
T: Miles to Go
R: jig
C: Rick Gagne
N: 1988 on tenor banjo
Q: 1/4=165
M: 6/8
K: Em
c | "Em"B2B BAG | "D"FED "Em"E2A | Bee gee | "D"dee "C"gee |
"Bm"BAB dcB | "Am"ABA cBA | "Bm"B2B "C5"AGF | "D"GFD "Em"E2 :|
c | "Em"Bee gee | "D"dee "C"gee | "Bm"Bee gee | "Am"agf "C"gfe |
"Em"Bee gee | "D"dee "C"gee | "Bm"agf "C"gfe | "D"fed "C"ed :|
